X:1
T:Ath, LM
T:Ath, LM
T:Samuel Sebastian Wesley, 1864
T:Public Domain Courtesy of the Cyber Hymnal™
C:Samuel Sebastian Wesley, 1864
Z:Public Domain
Z:Courtesy of the Cyber Hymnal™
%%score ( 1 2 ) ( 3 4 )
L:1/8
Q:1/4=107
M:4/4
K:F
V:1 treble 
V:2 treble 
V:3 bass 
V:4 bass 
V:1
 [CA]2 | [Cc]2 [Cc]2 [CA]2 [EG]2 | [FA]2 [G=B]2 [Gc]2 [Ec]2 | [FA]2 [Gc]2 [FB]2 [Fc]2 | %4
 [FA]2 [EG]2 F2 [Ac]2 | [Ad]2 [Gd]2 [GA]2 c2 | [AB]2 B2 [EA]2 [Ff]2 | [Ae]2 [Fd]2 [Gc]2 [Ad]2 | %8
 B2 [EG]2 F2 |] %9
V:2
 x2 | x8 | x8 | x8 | x4 F2 x2 | x6 (^FA) | x2 (GF) x4 | x8 | (GF) x F2 x |] %9
V:3
 [F,A,]2 | [F,A,]2 [E,G,]2 [F,A,]2 [C,C]2 | [F,C]2 [D,F]2 [C,E]2 [C,C]2 | %3
 [F,C]2 [C,E]2 [D,D]2 [A,,C]2 | [C,C]2 (CB,) [F,A,]2 [F,C]2 | [B,,C]2 [B,,D]2 [C,_E]2 [D,D]2 | %6
 [G,D]2 (ED) [A,,^C]2 [D,A,]2 | [A,C]2 [B,F]2 [E,C]2 (A,D) | [G,D]2 (CB,) [F,A,]2 |] %9
V:4
 x2 | x8 | x8 | x8 | x2 C,2 x4 | x8 | x2 G,,2 x4 | x6 ^F,2 | x2 E,2 x2 |] %9

